svg/weather/rain_line.svg

<?xml version="1.0" encoding="UTF-8"?>
<svg width="24px" height="24px" viewBox="0 0 24 24" version="1.1" xmlns="http://www.w3.org/2000/svg" xmlns:xlink="http://www.w3.org/1999/xlink">
    <title>rain_line</title>
    <g id="页面-1" stroke="none" stroke-width="1" fill="none" fill-rule="evenodd">
        <g id="Weather" transform="translate(-288.000000, 0.000000)" fill-rule="nonzero">
            <g id="rain_line" transform="translate(288.000000, 0.000000)">
                 <path d="M24,0 L24,24 L0,24 L0,0 L24,0 Z M12.5934901,23.257841 L12.5819402,23.2595131 L12.5108777,23.2950439 L12.4918791,23.2987469 L12.4918791,23.2987469 L12.4767152,23.2950439 L12.4056548,23.2595131 C12.3958229,23.2563662 12.3870493,23.2590235 12.3821421,23.2649074 L12.3780323,23.275831 L12.360941,23.7031097 L12.3658947,23.7234994 L12.3769048,23.7357139 L12.4804777,23.8096931 L12.4953491,23.8136134 L12.4953491,23.8136134 L12.5071152,23.8096931 L12.6106902,23.7357139 L12.6232938,23.7196733 L12.6232938,23.7196733 L12.6266527,23.7031097 L12.609561,23.275831 C12.6075724,23.2657013 12.6010112,23.2592993 12.5934901,23.257841 L12.5934901,23.257841 Z M12.8583906,23.1452862 L12.8445485,23.1473072 L12.6598443,23.2396597 L12.6498822,23.2499052 L12.6498822,23.2499052 L12.6471943,23.2611114 L12.6650943,23.6906389 L12.6699349,23.7034178 L12.6699349,23.7034178 L12.678386,23.7104931 L12.8793402,23.8032389 C12.8914285,23.8068999 12.9022333,23.8029875 12.9078286,23.7952264 L12.9118235,23.7811639 L12.8776777,23.1665331 C12.8752882,23.1545897 12.8674102,23.1470016 12.8583906,23.1452862 L12.8583906,23.1452862 Z M12.1430473,23.1473072 C12.1332178,23.1423925 12.1221763,23.1452606 12.1156365,23.1525954 L12.1099173,23.1665331 L12.0757714,23.7811639 C12.0751323,23.7926639 12.0828099,23.8018602 12.0926481,23.8045676 L12.108256,23.8032389 L12.3092106,23.7104931 L12.3186497,23.7024347 L12.3186497,23.7024347 L12.3225043,23.6906389 L12.340401,23.2611114 L12.337245,23.2485176 L12.337245,23.2485176 L12.3277531,23.2396597 L12.1430473,23.1473072 Z" id="MingCute" fill-rule="nonzero"></path>
                <path d="M12,19 C12.5523,19 13,19.4477 13,20 L13,21 C13,21.5523 12.5523,22 12,22 C11.4477,22 11,21.5523 11,21 L11,20 C11,19.4477 11.4477,19 12,19 Z M15,17 C15.51285,17 15.9355092,17.386027 15.9932725,17.8833761 L16,18 L16,19 C16,19.5523 15.5523,20 15,20 C14.48715,20 14.0644908,19.613973 14.0067275,19.1166239 L14,19 L14,18 C14,17.4477 14.4477,17 15,17 Z M9,17 C9.55228,17 10,17.4477 10,18 L10,19 C10,19.5523 9.55228,20 9,20 C8.44772,20 8,19.5523 8,19 L8,18 C8,17.4477 8.44772,17 9,17 Z M12,15 C12.5523,15 13,15.4477 13,16 L13,17 C13,17.5523 12.5523,18 12,18 C11.4477,18 11,17.5523 11,17 L11,16 C11,15.4477 11.4477,15 12,15 Z M11.5,2 C14.2856,2 16.66,3.75154 17.5856,6.21198 C20.13,6.90766 22,9.23462 22,12 C22,13.9637 21.0555,15.7067 19.6006,16.7995 C19.159,17.1312 18.5322,17.0422 18.2005,16.6006 C17.8687,16.159 17.9578,15.5322 18.3994,15.2005 C19.3732,14.4689 20,13.3078 20,12 C20,10.0145 18.5524,8.36524 16.6552,8.05324 C16.2654,7.98914 15.9477,7.7033 15.8441,7.32051 C15.326,5.40663 13.576,4 11.5,4 C9.01472,4 7,6.01472 7,8.5 C7,8.66909 7.00928,8.83564 7.02729,8.99923 C7.08294,9.50471 6.75509,9.9678 6.26851,10.0896 C4.96468,10.4159 4,11.5965 4,13 C4,14.1092 4.60141,15.079 5.50073,15.5993 C5.97879,15.8758 6.14215,16.4875 5.86561,16.9656 C5.58906,17.4437 4.97733,17.607 4.49927,17.3305 C3.00738,16.4675 2,14.852 2,13 C2,10.9486 3.23468,9.18749 5.00053,8.41614 C5.04543,4.86494 7.93814,2 11.5,2 Z M9,13 C9.55228,13 10,13.4477 10,14 L10,15 C10,15.5523 9.55228,16 9,16 C8.44772,16 8,15.5523 8,15 L8,14 C8,13.4477 8.44772,13 9,13 Z M15,13 C15.51285,13 15.9355092,13.386027 15.9932725,13.8833761 L16,14 L16,15 C16,15.5523 15.5523,16 15,16 C14.48715,16 14.0644908,15.613973 14.0067275,15.1166239 L14,15 L14,14 C14,13.4477 14.4477,13 15,13 Z" id="形状" fill="#09244B"></path>
            </g>
        </g>
    </g>
</svg>

<svg xmlns="http://www.w3.org/2000/svg" width="24" height="24"><g fill="none" fill-rule="nonzero"><path d="M24 0v24H0V0h24ZM12.593 23.258l-.011.002-.071.035-.02.004-.014-.004-.071-.035c-.01-.004-.019-.001-.024.005l-.004.01-.017.428.005.02.01.013.104.074.015.004.012-.004.104-.074.012-.016.004-.017-.017-.427c-.002-.01-.009-.017-.017-.018Zm.265-.113-.013.002-.185.093-.01.01-.003.011.018.43.005.012.008.007.201.093c.012.004.023 0 .029-.008l.004-.014-.034-.614c-.003-.012-.01-.02-.02-.022Zm-.715.002a.023.023 0 0 0-.027.006l-.006.014-.034.614c0 .012.007.02.017.024l.015-.002.201-.093.01-.008.004-.011.017-.43-.003-.012-.01-.01-.184-.092Z"/><path fill="#09244B" d="M12 19a1 1 0 0 1 1 1v1a1 1 0 1 1-2 0v-1a1 1 0 0 1 1-1Zm3-2a1 1 0 0 1 .993.883L16 18v1a1 1 0 0 1-1.993.117L14 19v-1a1 1 0 0 1 1-1Zm-6 0a1 1 0 0 1 1 1v1a1 1 0 1 1-2 0v-1a1 1 0 0 1 1-1Zm3-2a1 1 0 0 1 1 1v1a1 1 0 1 1-2 0v-1a1 1 0 0 1 1-1Zm-.5-13a6.502 6.502 0 0 1 6.086 4.212A6.002 6.002 0 0 1 19.6 16.799a1 1 0 1 1-1.202-1.598 4.001 4.001 0 0 0-1.744-7.147 1.01 1.01 0 0 1-.81-.733A4.5 4.5 0 0 0 7.027 9a1.01 1.01 0 0 1-.76 1.09 3.002 3.002 0 0 0-.767 5.51 1 1 0 1 1-1.002 1.73A5 5 0 0 1 5 8.417 6.5 6.5 0 0 1 11.5 2ZM9 13a1 1 0 0 1 1 1v1a1 1 0 1 1-2 0v-1a1 1 0 0 1 1-1Zm6 0a1 1 0 0 1 .993.883L16 14v1a1 1 0 0 1-1.993.117L14 15v-1a1 1 0 0 1 1-1Z"/></g></svg>
